!!!!SEGMENT: pl-gd--ee-2628--006-022_stabile-annibale--il-terzo-libro-de-madrigali-a-cinque-voci-alla-riua-del-tebro.krn
!!!cenid: 15xx:1089
!!!COM: Stabile, Annibale
!!!COM-rismID: pe30009662
!!!CDT: ~1535-1595/04
!!!CNT: Italian
!!!GTL: Il terzo libro de madrigali a cinque voci
!!!OTL: Alla riua del Tebro
!!!OMV: 022
!!!PDT: 1585
!!!AGN:
!!!SMS-siglum: PL-GD
!!!SMS-shelfmark: Ee 2628
!!!SMS-shelfwork: 006-022 G
!!!SMS-variant:
!!!SMS-altvar:
!!!NIFC-rismSourceID: 1001203361
!!!NIFC-rismChildID: 990060530
!!!NIFC-islandoraID: pl-gd:66139
!!!URL-pdf-islandora: https://repozytorium.nifc.pl/islandora/object/pl-gd%3A66139/datastream/PDF/view
!!!URL-scan: https://polish.musicsources.pl/pl/lokalizacje/galeria/klocki-introligatorskie/673 @EN{Scan on Polish Music Sources Website} @PL{Skany w portalu Dziedzictwo Muzyki Polskiej w otwartym dostępie}
!!!IIIF:
!!!ONB-nifc: UWAGA: Canto: s. 90-101, Tenore: s. 246-257, Basso: s. 402-413, Quinto: s. 724-735. Dla głosu Alto proszę skorzystać z https://pbc.gda.pl/dlibra/publication/87582/edition/79411/content, str. 25-48. Uwaga: utwory podzielone wg spisu treści dostępnych na końcu ksiąg – proszę sprawdzać sąsiednie tytuły. Głos Quinto proszę umieszczać wg ambitusu (może się różnić w zależności od utworu).
!!!AIN: 1 alto 1 bass 1 soprn 1 tenor 1 vox
!!!key: g
**kern	**text	**kern	**text	**kern	**text	**kern	**text	**kern	**text
*part5	*part5	*part4	*part4	*part3	*part3	*part2	*part2	*part1	*part1
*staff5	*staff5	*staff4	*staff4	*staff3	*staff3	*staff2	*staff2	*staff1	*staff1
*I"BASSO	*	*I"TENORE	*	*I"ALTO	*	*I"QVINTO	*	*I"CANTO	*
*I'B	*	*I'T	*	*I'A	*	*I'V	*	*I'S	*
*ICvox	*	*ICvox	*	*ICvox	*	*ICvox	*	*ICvox	*
*Ibass	*	*Itenor	*	*Ialto	*	*Ivox	*	*Isoprn	*
*clefF3	*	*clefC3	*	*clefC2	*	*clefG2	*	*clefG2	*
*k[b-]	*	*k[b-]	*	*k[b-]	*	*k[b-]	*	*k[b-]	*
*g:	*	*g:	*	*g:	*	*g:	*	*g:	*
*M4/4	*	*M4/4	*	*M4/4	*	*M4/4	*	*M4/4	*
*met(C)	*	*met(C)	*	*met(C)	*	*met(C)	*	*met(C)	*
=1-	=1-	=1-	=1-	=1-	=1-	=1-	=1-	=1-	=1-
!LO:TX:b:i:t=ALla riva del Tebro	!	!	!	!LO:TX:t=P:problem:podwójnie zapisany znak przykluczowy: B- b-	!	!	!	!	!
!LO:TX:t=P:problem:podwójnie zapisany znak przykluczowy: BB- B-	!	!	!	!	!	!	!	!	!
00r	.	4G/	AL-	4g\	AL-	4b-/	AL-	4dd\	AL-
.	.	4G/	-la	4g\	-la	4b-/	-la	4dd\	-la
.	.	2G/	ri-	2g\	ri-	2b-/	ri-	2dd\	ri-
=2-	=2-	=2-	=2-	=2-	=2-	=2-	=2-	=2-	=2-
.	.	4d\	-ua	4f#X\	-ua	4a/	-ua	4dd\	-ua
!	!	!LO:N:acc=#	!	!	!	!	!	!	!
.	.	4Bn/	del	4g\	del	4g/	del	4dd\	del
.	.	2c/	Te-	2e/	Te-	2g/	Te-	2cc\	Te-
=3-	=3-	=3-	=3-	=3-	=3-	=3-	=3-	=3-	=3-
!	!	!	!	!	!	!	!	!LO:N:acc=#	!
.	.	2G/	-bro	4d/	-bro	4g/	-bro	2bn/	-bro
.	.	.	.	4g\	Vid-	4dd\	Vid-	.	.
.	.	2r	.	4d/	-d'io	4.dd\	-d'io	2r	.
.	.	.	.	4fny\	tra	.	.	.	.
.	.	.	.	.	.	8cc\	tra	.	.
=4-	=4-	=4-	=4-	=4-	=4-	=4-	=4-	=4-	=4-
.	.	2r	.	4g\	mor-	4b-/	mor-	2r	.
.	.	.	.	4f\	-te	4a/	-te	.	.
.	.	4r	.	2b-\	e vi-	2g/	e vi-	4r	.
.	.	4g\	Vid-	.	.	.	.	4dd\	Vid-
*	*	*	*	*custos:a	*	*custos:f	*	*	*
!	!	!	!	!LO:LB:g=original	!	!LO:LB:g=original	!	!	!
=5-	=5-	=5-	=5-	=5-	=5-	=5-	=5-	=5-	=5-
00r	.	4d\	-d'i	2a\	-uo	4f/	-uo	4.dd\	-d'io
.	.	4f\	tra	.	.	4a/	Vid-	.	.
.	.	.	.	.	.	.	.	8cc\	tra
.	.	4g\	mor-	4r	.	4dd\	-d'io	4b-y/	mor-
.	.	4f\	-te e	4d/	tra	4dd\	tra	4a/	-te
*	*	*custos:e-	*	*	*	*	*	*custos:b-	*
!	!	!LO:LB:g=original	!	!	!	!	!	!LO:LB:g=original	!
=6-	=6-	=6-	=6-	=6-	=6-	=6-	=6-	=6-	=6-
.	.	2e-X\	vi-	4g\	mor-	4ee-X\	mor-	4b-/	e vi-
.	.	.	.	4b-\	-to	4dd\	-to	4g/	-uo
.	.	2f\	-uo	2a\	e vi-	2cc\	e vi-	2r	.
=7-	=7-	=7-	=7-	=7-	=7-	=7-	=7-	=7-	=7-
.	.	4r	.	4b-\	-uo	4b-/	-uo	4r	.
.	.	8B-y/	Gio-	8b-\	Gio-	8ff\	Gio-	8dd\	Gio-
.	.	8B-/	-ua-	8b-\	-ua-	8ff\	-ua-	8dd\	-ua-
.	.	2B-/	-net-	2b-\	-net-	2ff\	-net-	2dd\	-net-
=8-	=8-	=8-	=8-	=8-	=8-	=8-	=8-	=8-	=8-
.	.	4F/	-to	4a\	-to	4ff\	-to	4cc\	-to
.	.	4G/	Pa-	4g\	Pa-	4dd\	Pa-	4b-/	Pa-
.	.	2d\	-ſto-	2f#X\	-ſto-	2dd\	-ſto-	2a/	-ſto-
=9-	=9-	=9-	=9-	=9-	=9-	=9-	=9-	=9-	=9-
0r	.	4d\	-re	4fny	-re	4dd\	-re	4a/	-re
!	!	!	!	!	!	!	!	!LO:N:acc=#	!
.	.	4d\	man-	4f\	man-	4dd\	man-	4bn/	man-
.	.	4.c/	-dar	4.g\	-dar	4.eeny\	-dar	4.cc\	-dar
.	.	8B-/	tal	8g\	tal	8dd\	tal	8dd\	tal
=10-	=10-	=10-	=10-	=10-	=10-	=10-	=10-	=10-	=10-
.	.	4c/	vo-	4g\	vo-	4ee\	vo-	4cc\	vo-
.	.	4e-X\	-ce	4g\	-ce	4gg\	-ce	4b-y/	-ce
*	*	*	*	*custos:a	*	*custos:ff#	*	*	*
!	!	!	!	!LO:LB:g=original	!	!LO:LB:g=original	!	!	!
.	.	2d\	fuo-	2a\	fuo-	2ff#X\	fuo-	2dd\	fuo-
=11-	=11-	=11-	=11-	=11-	=11-	=11-	=11-	=11-	=11-
2r	.	2G/	-re	2g\	-re	1gg	-re	2dd\	-re
2.G\	Sa-	2.d\	Sa-	2.g\	Sa-	.	.	2.b-/	Sa-
=12-	=12-	=12-	=12-	=12-	=12-	=12-	=12-	=12-	=12-
.	.	.	.	.	.	1r	.	.	.
4D/	-zia-	4d\	-zia-	4f\	-zia-	.	.	4a/	-zia-
*	*	*custos:d	*	*	*	*	*	*custos:a	*
!	!	!LO:LB:g=original	!	!	!	!	!	!LO:LB:g=original	!
2D/	-ti o	2.d\	-ti o	2f\	-ti o	.	.	2a/	-ti o
*custos:G	*	*	*	*	*	*	*	*	*
!LO:LB:g=original	!	!	!	!	!	!	!	!	!
=13-	=13-	=13-	=13-	=13-	=13-	=13-	=13-	=13-	=13-
1G	cru-	.	.	2e-X/	cru-	2r	.	2g/	cru-
.	.	2c/	cru-	.	.	.	.	.	.
.	.	.	.	2d/	-da	2dd\	o	2g/	-da
!	!	!LO:N:acc=#	!	!	!	!	!	!	!
.	.	4Bn/	-da	.	.	.	.	.	.
=14-	=14-	=14-	=14-	=14-	=14-	=14-	=14-	=14-	=14-
2C/	-da	2c/	De-	1g	De-	2ee-X\	cru-	4r	.
.	.	.	.	.	.	.	.	2cc\	De-
1G/	De-	2d\	a	.	.	2dd\	-da	.	.
.	.	.	.	.	.	.	.	8b-/	.
.	.	.	.	.	.	.	.	8a/	.
=15-	=15-	=15-	=15-	=15-	=15-	=15-	=15-	=15-	=15-
.	.	2r	.	2d/	a	2b-/	De-	2g/	.
2D/	a	2.d\	Sa-	4r	.	4a/	-a	4f/	-a
*	*	*	*	*	*ij	*	*	*	*
.	.	.	.	2a\	Sa-	2dd\	Sa-	2ff\	Sa-
=16-	=16-	=16-	=16-	=16-	=16-	=16-	=16-	=16-	=16-
0r	.	.	.	.	.	.	.	.	.
.	.	4A/	-zia-	4a\	-zia-	4cc\	-zia-	4ee\	-zia-
.	.	2A/	-ti o	2.a\	-ti o	2cc\	-ti o	2ee\	-ti o
=17-	=17-	=17-	=17-	=17-	=17-	=17-	=17-	=17-	=17-
.	.	1d	cru-	.	.	2b-/	cru-	1dd	cru-
.	.	.	.	2g\	cru-	.	.	.	.
.	.	.	.	.	.	2.a/	-da	.	.
.	.	.	.	4f\	.	.	.	.	.
=18-	=18-	=18-	=18-	=18-	=18-	=18-	=18-	=18-	=18-
1r	.	2G/	-da	2.b-\	-da	.	.	2dd\	-da
.	.	.	.	.	.	2g/	De-	.	.
.	.	1d\	De-	.	.	.	.	1dd\	De-
.	.	.	.	8a\	De-	8f/	.	.	.
.	.	.	.	8g\	.	8e/	.	.	.
=19-	=19-	=19-	=19-	=19-	=19-	=19-	=19-	=19-	=19-
2r	.	.	.	2a\	.	2f/	.	.	.
4r	.	2A/	-a	2a\	-a	4e/	a	2cc#X\	-a
4A\	Del-	.	.	.	.	4eeny\	Del-	.	.
*	*	*	*	*custos:a	*Xij	*	*	*	*
!	!	!	!	!LO:LB:g=original	!	!	!	!	!
=20-	=20-	=20-	=20-	=20-	=20-	=20-	=20-	=20-	=20-
2A\	-la	2r	.	4r	.	2ee\	-la	2r	.
.	.	.	.	4a\	Del-	.	.	.	.
*	*	*	*	*	*	*custos:gg	*	*	*
!	!	!	!	!	!	!LO:LB:g=original	!	!	!
2E/	mia	2c/	Del-	4g\	-la	1gg\	-mia	2ccny\	Del-
.	.	.	.	4eny/	mia	.	.	.	.
=21-	=21-	=21-	=21-	=21-	=21-	=21-	=21-	=21-	=21-
1F	acer-	2.c/	-la	2.a\	a cer-	.	.	2cc\	-la
.	.	.	.	.	.	1ffny\	a cer-	2a/	mia
.	.	4c/	mia	4f\	-ba 	.	.	.	.
*	*	*	*	*	*	*	*	*custos:cc	*
!	!	!	!	!	!	!	!	!LO:LB:g=original	!
=22-	=22-	=22-	=22-	=22-	=22-	=22-	=22-	=22-	=22-
1C	-ba	2c/	acer-	2.g\	e	.	.	2cc\	a cer-
.	.	2G/	-ba e	.	.	1ee\	ba e	2cc\	-ba
.	.	.	.	8f\	re-	.	.	.	.
.	.	.	.	8e\	.	.	.	.	.
*	*	*custos:d	*	*	*	*	*	*	*
!	!	!LO:LB:g=original	!	!	!	!	!	!	!
=23-	=23-	=23-	=23-	=23-	=23-	=23-	=23-	=23-	=23-
1D	e re-	2.d\	re-	1f	.	.	.	2b-/	e
.	.	.	.	.	.	2.dd\	re-	1a/	rea
.	.	4A/	-a	.	.	.	.	.	.
=24-	=24-	=24-	=24-	=24-	=24-	=24-	=24-	=24-	=24-
1A	-a	2r	.	1e	a	.	.	.	.
.	.	.	.	.	.	8cc#X\	.	.	.
!	!	!	!	!	!	!LO:N:acc=#	!	!	!
.	.	.	.	.	.	8bn\	.	.	.
.	.	4r	.	.	.	2cc#X\	.	2ee\	Ma
.	.	4A/	Ma	.	.	.	.	.	.
=25-	=25-	=25-	=25-	=25-	=25-	=25-	=25-	=25-	=25-
4r	.	2d\	men-	4r	.	2dd\	a	2ff\	men-
4D/	Ma	.	.	4a\	Ma	.	.	.	.
*custos:G	*	*	*	*	*	*	*	*	*
!LO:LB:g=original	!	!	!	!	!	!	!	!	!
2G\	men-	4d\	-tre	2b-\	men-	4r	.	4dd\	-tre
.	.	4d\	vuol	.	.	4g/	Ma	4dd\	vuol
=26-	=26-	=26-	=26-	=26-	=26-	=26-	=26-	=26-	=26-
4G\	-tre	1d	dir	4g\	-tre	2b-y/	men-	1.dd	dir
4G\	vuol	.	.	4g\	vuol	.	.	.	.
1G\	dir	.	.	1g\	dir	4b-/	-tre	.	.
.	.	.	.	.	.	4b-/	uvol	.	.
=27-	=27-	=27-	=27-	=27-	=27-	=27-	=27-	=27-	=27-
.	.	1B-y	mor-	.	.	2b-/	dir	.	.
1E-X/	mor-	.	.	1g\	mor-	1b-/	mor-	1ee-X\	mor-
=28-	=28-	=28-	=28-	=28-	=28-	=28-	=28-	=28-	=28-
.	.	1B-	-te	.	.	.	.	.	.
2E-yX/	-te	.	.	2g\	-te	2b-/	-te	2ee-yX\	-te
*	*	*	*	*custos:f	*	*	*	*	*
!	!	!	!	!LO:LB:g=original	!	!	!	!	!
=29-	=29-	=29-	=29-	=29-	=29-	=29-	=29-	=29-	=29-
4r	.	4r	.	4r	.	4r	.	4r	.
4BB-/	Fi-	4B-/	Fi-	4f\	Fi-	4b-/	Fi-	4dd\	Fi-
4BB-/	-nì	4B-/	-nì	4f\	-nì	4b-/	-nì	4dd\	-nì
4BB-/	la	4B-/	la	4f\	la	4b-/	la	4dd\	la
*	*	*	*	*	*	*custos:a	*	*	*
!	!	!	!	!	!	!LO:LB:g=original	!	!	!
=30-	=30-	=30-	=30-	=30-	=30-	=30-	=30-	=30-	=30-
2F/	vi-	2c/	vi-	2f\	vi-	2a/	vi-	2cc\	vi-
2BB-/	-ta	2B-/	-ta	2f\	-ta	2b-/	-ta	2dd\	-ta
=31-	=31-	=31-	=31-	=31-	=31-	=31-	=31-	=31-	=31-
0r	.	2r	.	4r	.	2r	.	2r	.
.	.	.	.	2a\	ahi	.	.	.	.
.	.	2d\	ahi	.	.	2dd\	ahi	2ff\	ahi
.	.	.	.	2f\	mi-	.	.	.	.
*	*	*	*	*	*	*	*	*custos:ff	*
!	!	!	!	!	!	!	!	!LO:LB:g=original	!
=32-	=32-	=32-	=32-	=32-	=32-	=32-	=32-	=32-	=32-
.	.	2B-/	mi-	.	.	4dd\	mi-	4ff\	mi-
.	.	.	.	2g\	-ſe-	4dd\	ſe-	4dd\	-ſe-
*	*	*custos:c	*	*	*	*	*	*	*
!	!	!LO:LB:g=original	!	!	!	!	!	!	!
.	.	2c/	-ſe-	.	.	8ccny\	-ra-	2ee-X\	-ra-
.	.	.	.	.	.	8b-\	.	.	.
.	.	.	.	2a\	-ra	8a/	.	.	.
.	.	.	.	.	.	8g/	.	.	.
=33-	=33-	=33-	=33-	=33-	=33-	=33-	=33-	=33-	=33-
1r	.	2d\	-ra-	.	.	4f/	.	4dd\	-bil
.	.	.	.	2b-\	bil	4f/	bil	2dd\	ſor-
.	.	2e-X\	-bil	.	.	2g/	ſor-	.	.
.	.	.	.	2g\	ſor-	.	.	4cc\	.
=34-	=34-	=34-	=34-	=34-	=34-	=34-	=34-	=34-	=34-
4r	.	2d\	ſor-	.	.	2a/	te	0dd	-te
4D/	Fi-	.	.	8f#X\	.	.	.	.	.
.	.	.	.	8e\	.	.	.	.	.
4D/	-nì	2d\	-te	2f#X\	.	2a/	Fi-	.	.
4D/	la	.	.	.	.	.	.	.	.
=35-	=35-	=35-	=35-	=35-	=35-	=35-	=35-	=35-	=35-
2G\	vi-	4r	.	2g\	te	4b-/	-nì	.	.
.	.	4d\	Fi-	.	.	4b-/	la	.	.
2D/	-ta	4d\	-nì	2f#X\	Fi-	2a/	vi-	.	.
.	.	4d\	la	.	.	.	.	.	.
*custos:G	*	*	*	*	*	*	*	*	*
!LO:LB:g=original	!	!	!	!	!	!	!	!	!
=36-	=36-	=36-	=36-	=36-	=36-	=36-	=36-	=36-	=36-
2r	.	2G/	vi-	2g\	-nì	1b-	-ta	2r	.
2G\	ahi	2d\	-ta	2g\	la	.	.	2dd\	ahi
*	*	*	*	*custos:f	*	*	*	*	*
!	!	!	!	!LO:LB:g=original	!	!	!	!	!
=37-	=37-	=37-	=37-	=37-	=37-	=37-	=37-	=37-	=37-
2B-\	mi-	0r	.	1fnyn	vi-	2r	.	2dd\	mi-
2A\	ſe-	.	.	.	.	2a/	ahi	2cc\	-ſer-
=38-	=38-	=38-	=38-	=38-	=38-	=38-	=38-	=38-	=38-
2G\	-ra-	.	.	0d	-ta	2.dd\	mi-	2b-/	-a-
2F#X/	-bil	.	.	.	.	.	.	1a/	-bil
.	.	.	.	.	.	4cc\	ſe-	.	.
*	*	*	*	*	*	*custos:b-	*	*	*
!	!	!	!	!	!	!LO:LB:g=original	!	!	!
=39-	=39-	=39-	=39-	=39-	=39-	=39-	=39-	=39-	=39-
1G	ſor-	2r	.	.	.	2b-/	-ra-	.	.
.	.	2G/	ahi	.	.	2b-/	-bil	2.g/	ſor-
=40-	=40-	=40-	=40-	=40-	=40-	=40-	=40-	=40-	=40-
1D	-te	2.d\	mi-	2r	.	1a	ſor-	.	.
.	.	.	.	.	.	.	.	8f#X/	.
.	.	.	.	.	.	.	.	8e/	.
.	.	.	.	1a\	ahi	.	.	2f#X/	.
.	.	4c/	-ſe-	.	.	.	.	.	.
=41-	=41-	=41-	=41-	=41-	=41-	=41-	=41-	=41-	=41-
*	*	*	*	*	*	*	*	*lig	*
1r	.	2B-/	-ra-	.	.	2d/	-te	1g	-te
*	*	*	*	*	*	*	*ij	*	*
.	.	2B-/	-bil	1g\	mi-	2dd\	ahi	.	.
=42-	=42-	=42-	=42-	=42-	=42-	=42-	=42-	=42-	=42-
2r	.	1A	ſor-	.	.	4.cc#X\	mi-	1a	.
.	.	.	.	.	.	8cc#\	ſe-	.	.
2D/	ahi	.	.	2f#X\	-ſe-	2.dd\	-ra-	.	.
*	*	*	*	*	*	*	*	*Xlig	*
=43-	=43-	=43-	=43-	=43-	=43-	=43-	=43-	=43-	=43-
!LO:N:acc=#	!	!G	!	!	!	!	!	!	!
1BBn	mi-	1G	-te	2g\	-ra-	.	.	2r	.
.	.	.	.	.	.	4dd\	-bil	.	.
.	.	.	.	2d/	-bil	1dd\	ſor-	2g/	chi
*	*	*custos:G	*ij	*	*	*	*	*custos:g	*
!	!	!LO:LB:g=original	!	!	!	!	!	!LO:LB:g=original	!
=44-	=44-	=44-	=44-	=44-	=44-	=44-	=44-	=44-	=44-
1C	-ſe-	2r	.	1e-X	ſor-	.	.	1.g	mi-
.	.	2G/	ahi	.	.	2ccny\	-te	.	.
*	*	*	*	*	*	*	*Xij	*	*
=45-	=45-	=45-	=45-	=45-	=45-	=45-	=45-	=45-	=45-
1D	-ra-	2B-/	mi-	1d	-te	2r	.	.	.
.	.	1A/	-ſe-	.	.	2dd\	ahi	2f#X/	-ſe-
=46-	=46-	=46-	=46-	=46-	=46-	=46-	=46-	=46-	=46-
1E-X	-bil	.	.	1r	.	2b-/	mi-	2.g/	ra-
.	.	1G/	-ra-	.	.	2cc\	-ſe-	.	.
.	.	.	.	.	.	.	.	4a/	.
=47-	=47-	=47-	=47-	=47-	=47-	=47-	=47-	=47-	=47-
0.D	ſor-	.	.	0d	ſor-	2.dd\	-ra-	2b-/	.
.	.	2F/	-bil	.	.	.	.	1a/	-bil
.	.	.	.	.	.	4a/	-bil	.	.
=48-	=48-	=48-	=48-	=48-	=48-	=48-	=48-	=48-	=48-
*	*	*lig	*	*	*	*	*	*	*
.	.	1B-	ſor-	.	.	0dd	ſor-	.	.
.	.	.	.	.	.	.	.	1g/	ſor-
=49-	=49-	=49-	=49-	=49-	=49-	=49-	=49-	=49-	=49-
.	.	1A	.	00d	-te.	.	.	.	.
.	.	.	.	.	.	.	.	2f#X/	.
*	*	*Xlig	*	*	*	*	*	*	*
=50-	=50-	=50-	=50-	=50-	=50-	=50-	=50-	=50-	=50-
!	!	!	!	!	!	!LO:N:acc=#	!	!	!
00G	-te.	00G	-te.	.	.	00bn/	-te.	00g	-te.
=51-	=51-	=51-	=51-	=51-	=51-	=51-	=51-	=51-	=51-
.	.	.	.	1ryy	.	.	.	.	.
==	==	==	==	==	==	==	==	==	==
*-	*-	*-	*-	*-	*-	*-	*-	*-	*-
!!!system-decoration: [(s1,s2,s3,s4,s5)]
!!!ENC: Marta Opryszak
!!!END: 2022-07-12
!!!ENC: Natalia Wrzos
!!!END: 2022-08-04
!!!YEC: Copyright 2022 Narodowy Instytut Fryderyka Chopina (https://polishscores.org)
!!!YEM: License CC-BY-4.0 (https://creativecommons.org/licenses/by/4.0)
